X:144
T: Mullinavat
Z: Piano Box Version by Martin Fleischmann
H: Created 2013-02-19 /  Last Modified 2015-05-17
M: 4/4
L: 1/8
R: reel
K: Edor
ef|:gfed BAGF|GBAG ~E3F|GEB,E GABd|eB{d}BA B2ef|
g2fd edBc|BAGF ~E2EF|G2GF GABA |(3Bcd ed e2 :||
ef|:geBe gabg |afdf afdf |geBe gabg |afdf gee2|
geBe gabg |afde fg az |bgaf gfed |Bgfd e2 :||

